resources/svg/seedling-line.svg

<svg fill="currentColor" viewBox="0 0 24 24" xmlns="http://www.w3.org/2000/svg"><path d="M5.99805 3C9.48787 3 12.3812 5.55379 12.9112 8.8945C14.0863 7.72389 15.7076 7 17.498 7H21.998V9.5C21.998 13.0899 19.0879 16 15.498 16H12.998V21H10.998V13H8.99805C5.13205 13 1.99805 9.86599 1.99805 6V3H5.99805ZM19.998 9H17.498C15.0128 9 12.998 11.0147 12.998 13.5V14H15.498C17.9833 14 19.998 11.9853 19.998 9.5V9ZM5.99805 5H3.99805V6C3.99805 8.76142 6.23662 11 8.99805 11H10.998V10C10.998 7.23858 8.75947 5 5.99805 5Z"/></svg>

<svg xmlns="http://www.w3.org/2000/svg" viewBox="0 0 24 24" fill="currentColor">
    <g>
        <path fill="none" d="M0 0H24V24H0z"/>
        <path d="M6 3c3.49 0 6.383 2.554 6.913 5.895C14.088 7.724 15.71 7 17.5 7H22v2.5c0 3.59-2.91 6.5-6.5 6.5H13v5h-2v-8H9c-3.866 0-7-3.134-7-7V3h4zm14 6h-2.5c-2.485 0-4.5 2.015-4.5 4.5v.5h2.5c2.485 0 4.5-2.015 4.5-4.5V9zM6 5H4v1c0 2.761 2.239 5 5 5h2v-1c0-2.761-2.239-5-5-5z"/>
    </g>
</svg>
